!!!!SEGMENT: pl-wtm--670-sp-3678--001-007_mozart-wolfgang-amadeus--piosenki-dla-mlodocianego-wieku-piotr-maszynski-7-tesknota-za-wiosna.krn
!!!cenid: 18xx:4759
!!!COM: Mozart, Wolfgang Amadeus
!!!COM-rismID: pe115324
!!!CDT: 1756/01/27-1791/12/05
!!!CNT: Austrian
!!!GTL: Piosenki dla młodocianego wieku (Piotr Maszyński)
!!!OTL: 7. Tęsknota za wiosną
!!!OMV: 007
!!!PDT: 1871
!!!AGN: Secular; Song; Children
!!!YEC: Copyright 2022 Narodowy Instytut Fryderyka Chopina (https://polishscores.org)
!!!YEM: License CC-BY-4.0 (https://creativecommons.org/licenses/by/4.0)
!!!SMS-siglum: PL-Wtm
!!!SMS-shelfmark: 670 śp 3678
!!!SMS-variant:
!!!SMS-altvar:
!!!SMS-shelfwork: 001-007 G
!!!NIFC-rismSourceID: 1001185478
!!!NIFC-rismChildID: 1001185478
!!!NIFC-islandoraID: pl-wtm:57754
!!!URL-pdf-islandora: https://repozytorium.nifc.pl/islandora/object/pl-wtm%3A57754/datastream/PDF/view
!!!URL-scan: https://polish.musicsources.pl/pl/lokalizacje/galeria/druki-muzyczne/19483/6 @EN{Scan on Polish Music Sources Website} @PL{Skany w portalu Dziedzictwo Muzyki Polskiej w otwartym dostępie}
!!!IIIF:
!!!ONB-nifc:
!!!AIN: 1 canto 1 piano
!!!key: F
**kern	**fing	**kern	**fing	**dynam	**kern	**text	**text	**text	**text	**dynam
*part2	*	*part2	*	*part2	*part1	*part1	*part1	*part1	*part1	*part1
*staff3	*	*staff2	*	*staff2/3	*staff1	*staff1	*staff1	*staff1	*staff1	*
*IGacmp	*	*IGacmp	*	*	*	*	*	*	*	*
*ICklav	*	*ICklav	*	*	*ICvox	*	*	*	*	*
*Ipiano	*	*Ipiano	*	*	*Icanto	*	*	*	*	*
*I"Fortepian.	*	*I"Fortepian.	*	*	*I"Śpiew.	*	*	*	*	*
*I'	*	*I'	*	*	*I'	*	*	*	*	*
*clefF4	*	*clefG2	*	*	*clefG2	*	*	*	*	*
*k[b-]	*	*k[b-]	*	*	*k[b-]	*	*	*	*	*
*F:	*	*F:	*	*	*F:	*	*	*	*	*
*M6/8	*	*M6/8	*	*	*M6/8	*	*	*	*	*
!!LO:TX:a:B:t=Allegro.
!	!	!	!	!	!	!	!	!	!	!LO:DY:a
8r	.	8r	.	.	8f/	Przy-	Co	Ja	Już	p
=1	=1	=1	=1	=1	=1	=1	=1	=1	=1	=1
!	!	!	!	!LO:DY:t=%s non legato	!	!	!	!	!	!
4F\	.	8A/L	.	p	4f/	-by-	pra-	je-	dość	.
.	.	8c/	.	.	.	.	.	.	.	.
8r	.	8f/J	.	.	8a/	-waj	-wda	-dnak	tej	.
4r	.	8A/L	.	.	4cc\	pię-	ma	zaw-	zi-	.
.	.	8c/	.	.	.	.	.	.	.	.
8r	.	8f/J	.	.	8ff\	-kna	i	-sze	-my	.
=2	=2	=2	=2	=2	=2	=2	=2	=2	=2	=2
4F\	.	8A/L	.	.	[4.cc\	wio-	zi-	wo-	nu-	.
.	.	8c/	.	.	.	.	.	.	.	.
8r	.	8f/J	.	.	.	.	.	.	.	.
4r	.	8A/L	.	.	8cc\]	.	.	.	.	.
.	.	8c/	.	.	8a/	-sno,	-ma	-lę	-dnej,	.
8r	.	8f/J	.	.	8f/	u-	swych	sko-	we-	.
=3	=3	=3	=3	=3	=3	=3	=3	=3	=3	=3
4C/	.	8G/L	.	.	4b-\	-ro-	przy-	-wron-	-sel-	.
.	.	8c/	.	.	.	.	.	.	.	.
8r	.	8e/J	.	.	8b-\	-czy	-jem-	-ka	-sza	.
4r	.	8G/L	.	.	8b-\L	ze-	-no-	sły-	z wio-	.
.	.	8c/	.	.	8cc\J	.	.	.	.	.
8r	.	8e/J	.	.	8b-\	-ślij	-ści	-szeć	-sną	.
=4	=4	=4	=4	=4	=4	=4	=4	=4	=4	=4
4F\	.	8A/L	.	.	4.a/	maj,	dość,	śpiew,	wieś,	.
.	.	8c/	.	.	.	.	.	.	.	.
8r	.	8f/J	.	.	.	.	.	.	.	.
4r	.	8A/L	.	.	4r	.	.	.	.	.
.	.	8c/	.	.	.	.	.	.	.	.
8r	.	8f/J	.	.	8f/	i	gdy	od	przy-	.
!!LO:LB:g=original
=5	=5	=5	=5	=5	=5	=5	=5	=5	=5	=5
4F\	.	8A/L	.	.	4f/	tam	mro-	ra-	-by-	.
.	.	8c/	.	.	.	.	.	.	.	.
8r	.	8f/J	.	.	8a/	gdzie	-zik	-na	-waj	.
4r	.	8A/L	.	.	4cc\	zwy-	san-	wy-	ma-	.
.	.	8c/	.	.	.	.	.	.	.	.
8r	.	8f/J	.	.	8ff\	-kle	-nę	-biedz	-ju	.
=6	=6	=6	=6	=6	=6	=6	=6	=6	=6	=6
4F\	.	8A/L	.	.	[4.cc\	ro-	trzy-	w po-	cu-	.
.	.	8c/	.	.	.	.	.	.	.	.
8r	.	8f/J	.	.	.	.	.	.	.	.
4r	.	8A/L	.	.	8cc\]	.	.	.	.	.
.	.	8c/	.	.	8a/	-sną	-ma	-le,	-dny	.
8r	.	8f/J	.	.	8f/	znów	i	lub	i	.
=7	=7	=7	=7	=7	=7	=7	=7	=7	=7	=7
4C/	.	8B-/L	.	.	4g/	fjoł-	w do-	spo-	ra-	.
.	.	8c/	.	.	.	.	.	.	.	.
8r	.	8e/J	.	.	8g/	-kom	-mu	-cząć	-dość	.
4r	.	8B-/L	.	.	(8g/L	kwi-	częst-	w cie-	dzie-	.
.	.	8c/	.	.	8a/J)	.	.	.	.	.
8r	.	8e/J	.	.	8g/	-tnąć	-szy	-niu	-ciom	.
=8	=8	=8	=8	=8	=8	=8	=8	=8	=8	=8
4F\	.	8A/L	.	.	4.f/	daj.	gość.	drzew.	nieś.	.
.	.	8c/	.	.	.	.	.	.	.	.
8r	.	8f/J	.	.	.	.	.	.	.	.
4r	.	8a/L	.	.	4r	.	.	.	.	.
.	.	8f/	.	.	.	.	.	.	.	.
8r	.	8c/J	.	.	8a/	Na	Co	Dziś	Za-	.
=9	=9	=9	=9	=9	=9	=9	=9	=9	=9	=9
(4.C/	.	8G/L	1	.	4b-\	drze-	wie-	na	-kwi-	.
.	.	8c/	2	.	.	.	.	.	.	.
.	.	8e/J	4	.	8f#X/	-wach	-czór	nic	-tnij	.
4.BB-/	.	8G/L	.	.	(8g/L	cie-	tań-	ta	bo-	.
.	.	8c/	.	.	8a/J)	.	.	.	.	.
.	.	8e/J	.	.	8b-\	-pła	-ce	o-	-że	.
!!LO:LB:g=original
=10	=10	=10	=10	=10	=10	=10	=10	=10	=10	=10
4.AA/	.	8A/L	.	.	(4cc\	si-	wte-	-cho-	ziół-	.
.	.	8c/	.	.	.	.	.	.	.	.
.	.	8f/J	.	.	8a/)	.	.	.	.	.
4.FF/)	.	8A/L	.	.	8ff\	-łą	-dy,	-ta,	-ko,	.
.	.	8d/	.	.	8r	.	.	.	.	.
.	.	8f/J	.	.	8ff\	zie-	za-	choć	fi-	.
=11	=11	=11	=11	=11	=11	=11	=11	=11	=11	=11
2.GG/	.	8G/L	.	.	(8ff\L	-lo-	-ba-	wio-	-joł-	.
.	.	8Bn/	.	.	8ee\J)	.	.	.	.	.
.	.	8d/J	.	.	8dd\	-ny	-wa	-sna	-ku	.
.	.	8G/L	.	.	(8dd\L	roz-	w ró-	ni-	roz-	.
.	.	8d/	.	.	8cc\J)	.	.	.	.	.
.	.	8f/J	.	.	8bn\	-wiń	-żne	-by	-noś	.
=12	=12	=12	=12	=12	=12	=12	=12	=12	=12	=12
4C/	.	8e/L	.	.	4.cc\	liść	gry,	tuż,	woń,	.
.	.	8d/ 8f	3 5	.	.	.	.	.	.	.
8r	.	8c/J 8e	1 4	.	.	.	.	.	.	.
4r	.	8B-X/L 8d	3 5	.	4r	.	.	.	.	.
.	.	8A/ 8c	.	.	.	.	.	.	.	.
8r	.	8G/J 8B-	.	.	8f/	i	lub	w o-	o-	.
=13	=13	=13	=13	=13	=13	=13	=13	=13	=13	=13
(4.F\	.	8A/L	1	.	4f/	niech-	fan-	-gród-	-dez-	.
.	.	8c/	.	.	.	.	.	.	.	.
.	.	8f/J	.	.	8a/	-by	-ty,	-ku	-wij	.
4.E-X\	.	8A/L	.	.	4cc\	mo-	by	peł-	się	.
.	.	8c/	.	.	.	.	.	.	.	.
.	.	8f/J	.	.	8ff\	-żna	od	-no	ku-	.
=14	=14	=14	=14	=14	=14	=14	=14	=14	=14	=14
4.D\	.	8B-/L	2	.	(4ff\	by-	bie-	bło-	-kuł-	.
.	.	8d/	.	.	.	.	.	.	.	.
.	.	8f/J	.	.	8b-\)	.	.	.	.	.
4.BB-/)	.	8B-/L	.	.	4dd\	-ło	-dy	-ta,	-ko	.
.	.	8d/	.	.	.	.	.	.	.	.
.	.	8g/J	.	.	8dd\	znów	go-	wyjść	i	.
!!LO:LB:g=original
=15	=15	=15	=15	=15	=15	=15	=15	=15	=15	=15
*	*below	*	*	*	*	*	*	*	*	*
4C/	1	8A/L	.	.	(8cc\L	na	-dzi-	z do-	ty	.
.	.	8c/	.	.	8a\J)	.	.	.	.	.
8r	.	8f/J	.	.	8cc\	prze-	-ny	-mu	sło-	.
.	.	.	.	.	(8qcc/	.	.	.	.	.
4CC/	.	8B-/L	.	.	(8b-/L)	-chadz-	prę-	a-	-wi-	.
.	.	8c/	.	.	8a/J)	.	.	.	.	.
8r	.	8e/J	.	.	8g/	-kę	-dzej	-ni	-ku	.
=16	=16	=16	=16	=16	=16	=16	=16	=16	=16	=16
8FF/L	.	8A/ 8f	.	.	4f/	iść.	szły.	rusz.	dzwoń.	.
8F/J	.	8r	.	.	.	.	.	.	.	.
8r	.	8cc'\	3	.	8r	.	.	.	.	.
8E\L	5	(8dd\L	.	mf	4r	.	.	.	.	.
8G\	4	8cc\)	.	.	.	.	.	.	.	.
8B-\J	2	8cc'\J	.	.	8r	.	.	.	.	.
=17	=17	=17	=17	=17	=17	=17	=17	=17	=17	=17
8F\L	5	(8bn\L	2	.	2.r	.	.	.	.	.
8A\	3	8cc\)	3	.	.	.	.	.	.	.
8c\J	1	8cc'\J	2	.	.	.	.	.	.	.
8G\L	.	8cc'\L	1	.	.	.	.	.	.	.
8B-\	.	8dd'\	.	.	.	.	.	.	.	.
8c\J	.	8ee'\J	.	.	.	.	.	.	.	.
=18	=18	=18	=18	=18	=18	=18	=18	=18	=18	=18
8F\L	.	8ff\	.	.	2.r	.	.	.	.	.
8A\	.	8r	.	.	.	.	.	.	.	.
8c\J	.	8ccc'\	3	f	.	.	.	.	.	.
.	.	32qqccc/LLL	2	.	.	.	.	.	.	.
.	.	32qqddd/	.	.	.	.	.	.	.	.
.	.	32qqeee/JJJ	.	.	.	.	.	.	.	.
8E\L	.	(8ddd\L	.	.	.	.	.	.	.	.
8G\	.	8ccc\)	.	.	.	.	.	.	.	.
8B-\J	.	8bb-\J	3	.	.	.	.	.	.	.
=19	=19	=19	=19	=19	=19	=19	=19	=19	=19	=19
8F\L	.	(8bbn\L	.	.	2.r	.	.	.	.	.
8A\	.	8ccc\)	.	.	.	.	.	.	.	.
8c\J	.	8aa'\J	.	.	.	.	.	.	.	.
8C\L	.	(8ccc\L	4	.	.	.	.	.	.	.
8E\	.	8bb-X\)	.	.	.	.	.	.	.	.
8B-\J	.	8gg'\J	1	.	.	.	.	.	.	.
=20	=20	=20	=20	=20	=20	=20	=20	=20	=20	=20
*^	*	*	*	*	*	*	*	*	*	*
*	*	*^	*	*	*	*	*	*	*	*	*
4A/	4.F\	2	4	(8ff\L	3	.	4r	.	.	.	.	.
.	.	.	.	8cc\)	.	.	.	.	.	.	.	.
8c/	.	.	.	8aa'\J	.	.	8r	.	.	.	.	.
8A/	8F\	.	.	8ff\	.	.	4r	.	.	.	.	.
8r	8ryy	.	.	8r	.	.	.	.	.	.	.	.
*	*	*v	*v	*	*	*	*	*	*	*	*	*
*v	*v	*	*	*	*	*	*	*	*	*	*
==	==	==	==	==	==	==	==	==	==	==
*-	*-	*-	*-	*-	*-	*-	*-	*-	*-	*-
!!!system-decoration: s1{(s2,s3)}
!!!RDF**kern: > = above
!!!RDF**kern: < = below
!!!RDF**kern: N = linked
!!!ENC: Andrzej Gręziak
!!!EED: Katarzyna Serwa
!!!END: 2025-03-25
!!!EEV: 2025-03-27
